X: 2
T: A Stor Mo Chroi
R: waltz
M: 3/4
L: 1/8
K: Amin
(c3/2d/2)|e3/2e/2 e2de|(dc) (3(AGE) G2-|
G4A3/2c/2|d3/2e/2(dcAG)|(E3/2D/2)(EG) A2|
[1A4:|[2A4-A A| (3(AG)A (3cde g3/2a/2|
A3A (3(AG)A| (3(cde) a3b| (3(age) g3(a/2g/2)|
e3/2d/2 e3d/2e/2|(dc) (3(AG)E G2-|
G2ed (3cAG|(E3D) (EG)|A2A4|]


Tune 5737	Setting 23058

